src/assets/delete.svg

<?xml version="1.0" encoding="UTF-8" standalone="no"?>
<svg
   xmlns:dc="http://purl.org/dc/elements/1.1/"
   xmlns:cc="http://creativecommons.org/ns#"
   xmlns:rdf="http://www.w3.org/1999/02/22-rdf-syntax-ns#"
   xmlns:svg="http://www.w3.org/2000/svg"
   xmlns="http://www.w3.org/2000/svg"
   xmlns:sodipodi="http://sodipodi.sourceforge.net/DTD/sodipodi-0.dtd"
   xmlns:inkscape="http://www.inkscape.org/namespaces/inkscape"
   height="100%"
   viewBox="0 0 24 24"
   width="100%"
   id="svg2"
   version="1.1"
   inkscape:version="0.91 r13725"
   sodipodi:docname="delete.svg"
   style="fill:#000000">
  <metadata
     id="metadata12">
    <rdf:RDF>
      <cc:Work
         rdf:about="">
        <dc:format>image/svg+xml</dc:format>
        <dc:type
           rdf:resource="http://purl.org/dc/dcmitype/StillImage" />
        <dc:title />
      </cc:Work>
    </rdf:RDF>
  </metadata>
  <defs
     id="defs10" />
  <sodipodi:namedview
     pagecolor="#ffffff"
     bordercolor="#666666"
     borderopacity="1"
     objecttolerance="10"
     gridtolerance="10"
     guidetolerance="10"
     inkscape:pageopacity="0"
     inkscape:pageshadow="2"
     inkscape:window-width="1615"
     inkscape:window-height="1026"
     id="namedview8"
     showgrid="false"
     inkscape:zoom="16.013469"
     inkscape:cx="3.3283043"
     inkscape:cy="9.004201"
     inkscape:window-x="65"
     inkscape:window-y="24"
     inkscape:window-maximized="1"
     inkscape:current-layer="svg2" />
  <path
     style="opacity:1;fill:#b1b1b1;fill-opacity:1;stroke:none;stroke-width:0.1;stroke-linecap:round;stroke-linejoin:round;stroke-miterlimit:4;stroke-dasharray:none;stroke-opacity:1"
     d="M 12,0.5 C 5.6487254,0.5 0.5,5.6487254 0.5,12 0.5,18.351275 5.6487254,23.5 12,23.5 18.351275,23.5 23.5,18.351275 23.5,12 23.5,5.6487254 18.351275,0.5 12,0.5 Z M 7.6203662,4.7865901 12,9.166224 16.379634,4.7865901 19.21341,7.6203662 14.833776,12 19.21341,16.379634 16.379634,19.21341 12,14.833776 7.6203662,19.21341 4.7865901,16.379634 9.166224,12 4.7865901,7.6203662 Z"
     id="path8135"
     inkscape:connector-curvature="0"
     sodipodi:nodetypes="sssssccccccccccccc" />
</svg>

<svg fill="#000000" version="1.1" viewBox="0 0 24 24" xmlns="http://www.w3.org/2000/svg">
 <path d="m12 0.5c-6.3513 0-11.5 5.1487-11.5 11.5 0 6.3513 5.1487 11.5 11.5 11.5 6.3513 0 11.5-5.1487 11.5-11.5 0-6.3513-5.1487-11.5-11.5-11.5zm-4.3796 4.2866 4.3796 4.3796 4.3796-4.3796 2.8338 2.8338-4.3796 4.3796 4.3796 4.3796-2.8338 2.8338-4.3796-4.3796-4.3796 4.3796-2.8338-2.8338 4.3796-4.3796-4.3796-4.3796z" fill="#b1b1b1"/>
</svg>
